X:11
T:Eikerril
O:Norway
A:
C:etter Henrik Gjellesvik
L:1/16
M:2/4
Q:1/8=180
R:Reel, Turdans
K:F
% %rightmargin 11.5cm
"Intro"|\
"C7"c4BA BGEG | "F".F2A2 F2 z2
% %rightmargin 2.78cm
%P:A
|: "F".C2C2 .A2A2 | "Bb"GABc d2c2 | "C7"c2BA B2G2 | GBAG "F"A2F2 |
"F".C2C2 .A2A2 | "Bb"GABc d2c2 | "C7"c2BA BGEG | "F".F2A2 F2 z2 :|
%P:B
|: "C".G2G2 .c2c2 | e2ce g2g2 | "G7"g2fe d2d2 | dfed "C"c2ec |
"C".G2G2 .c2c2 | e2ce g2g2 | "G7"g2fe d2d2 | dfed "C"c4 :|
%P:C
|: "F"f4 c3B | A2cA F2F2 | "C7"G2BG E3G | "F"F2FA c4 |
 "F"f4 c3B | A2cA F2F2 | "C7"G2BG E3G | "F".F2F2 F4 :|

